svgs/nova_launcher.svg

<?xml version="1.0" encoding="UTF-8" standalone="no"?>
<svg
   width="192"
   height="192"
   viewBox="0 0 192 192"
   version="1.1"
   id="svg3"
   xml:space="preserve"
   xmlns="http://www.w3.org/2000/svg"
   xmlns:svg="http://www.w3.org/2000/svg"><defs
     id="defs3" /><g
     fill="none"
     stroke="#000"
     stroke-linecap="round"
     stroke-linejoin="round"
     stroke-width="3.862"
     id="g3"
     style="stroke-width:12;stroke-dasharray:none"><path
       d="M 143.56196,117.43978 170.00023,82.6017 143.56196,61.161917 130.33973,63.842411 V 120.12027 Z M 61.658192,127.4885 V 69.201315 l -6.557648,0.929626 C 44.204286,83.330958 33.053147,96.329322 21.999746,109.40039 l 26.438278,21.43978 z M 129.7105,50.442026 V 141.55797 L 95.999999,168.35666 63.613765,141.55797 V 50.442026 L 95.999999,23.815517 Z"
       id="path2"
       style="opacity:1;stroke-width:12;stroke-dasharray:none" /><path
       style="fill:none;stroke:#000000;stroke-width:8;stroke-linecap:round;stroke-linejoin:miter;stroke-dasharray:none;stroke-opacity:1"
       d="M 96.499725,76.791051 76.076617,97.335273"
       id="path3" /><path
       style="fill:none;stroke:#000000;stroke-width:8;stroke-linecap:round;stroke-linejoin:miter;stroke-dasharray:none;stroke-opacity:1"
       d="M 96.499725,76.791051 116.92284,97.335273"
       id="path3-3" /><path
       style="opacity:1;fill:none;stroke:#000000;stroke-width:8;stroke-linecap:round;stroke-linejoin:miter;stroke-dasharray:none;stroke-opacity:1"
       d="m 109.75965,81.377462 v 8.75214"
       id="path4" /><path
       style="opacity:1;fill:none;stroke:#000000;stroke-width:8;stroke-linecap:round;stroke-linejoin:miter;stroke-dasharray:none;stroke-opacity:1"
       d="m 83.983928,103.49944 v 10.25661"
       id="path5" /><path
       style="opacity:1;fill:none;stroke:#000000;stroke-width:8;stroke-linecap:round;stroke-linejoin:miter;stroke-dasharray:none;stroke-opacity:1"
       d="m 109.75965,103.49944 v 10.25661"
       id="path5-6" /><path
       style="fill:none;stroke:#000000;stroke-width:8;stroke-linecap:butt;stroke-linejoin:miter;stroke-dasharray:none;stroke-opacity:1"
       d="M 83.983928,113.75605 H 109.75965"
       id="path6" /></g></svg>

<svg xmlns="http://www.w3.org/2000/svg" width="192" height="192" viewBox="0 0 192 192"><g fill="none" stroke="#000" stroke-linecap="round" stroke-linejoin="round" stroke-width="12"><path d="M143.562 117.44 170 82.602l-26.438-21.44-13.222 2.68v56.278Zm-81.904 10.049V69.2l-6.557.93C44.204 83.33 33.053 96.329 22 109.4l26.438 21.44zm68.052-77.047v91.116L96 168.357l-32.386-26.799V50.442L96 23.816Z"/><path stroke-linejoin="miter" stroke-width="8" d="M96.5 76.791 76.077 97.335M96.5 76.791l20.423 20.544m-7.163-15.958v8.753M83.984 103.5v10.256M109.76 103.5v10.256"/><path stroke-linecap="butt" stroke-linejoin="miter" stroke-width="8" d="M83.984 113.756h25.776"/></g></svg>
